svgs/themed_icon_calendar_25.svg

<svg height="192" width="192" xmlns="http://www.w3.org/2000/svg"><path d="M146 30H46c-8.837 0-16 7.163-16 16v100c0 8.837 7.163 16 16 16h75.373a16 16 0 0 0 11.313-4.686l24.628-24.628A16 16 0 0 0 162 121.373V46c0-8.837-7.163-16-16-16Z" stroke="#000" stroke-width="12" fill="none"/><path d="M63.484 120c-1.824 0-3.144-.408-3.96-1.224-.816-.864-1.224-2.112-1.224-3.744 0-1.056.264-2.04.792-2.952.528-.912 1.248-1.848 2.16-2.808l13.536-14.256c2.016-2.16 3.456-4.08 4.32-5.76.912-1.68 1.368-3.36 1.368-5.04 0-4.32-2.664-6.48-7.992-6.48-1.392 0-2.832.192-4.32.576-1.44.384-2.952 1.056-4.536 2.016-1.296.768-2.496.936-3.6.504-1.056-.432-1.848-1.176-2.376-2.232a5.23 5.23 0 0 1-.36-3.312c.288-1.2 1.08-2.184 2.376-2.952a24.478 24.478 0 0 1 6.912-2.88c2.496-.672 4.968-1.008 7.416-1.008 5.664 0 9.984 1.272 12.96 3.816 3.024 2.496 4.536 6.072 4.536 10.728 0 3.072-.72 6.024-2.16 8.856-1.392 2.784-3.696 5.808-6.912 9.072l-9.792 9.936h16.704c3.12 0 4.68 1.512 4.68 4.536 0 3.072-1.56 4.608-4.68 4.608H63.484Zm53.468.792c-2.448 0-4.968-.288-7.56-.864-2.592-.624-4.968-1.584-7.128-2.88-1.392-.768-2.256-1.752-2.592-2.952-.288-1.248-.192-2.4.288-3.456.528-1.104 1.344-1.872 2.448-2.304 1.152-.48 2.424-.336 3.816.432 3.36 1.824 6.864 2.736 10.512 2.736 2.736 0 4.848-.672 6.336-2.016 1.536-1.344 2.304-3.144 2.304-5.4 0-2.304-.744-4.152-2.232-5.544-1.44-1.392-3.408-2.088-5.904-2.088-1.248 0-2.52.216-3.816.648-1.296.384-2.592 1.08-3.888 2.088-.48.384-1.128.744-1.944 1.08a5.87 5.87 0 0 1-2.376.504c-2.928 0-4.392-1.368-4.392-4.104V74.064c0-3.216 1.608-4.824 4.824-4.824h23.112c3.216 0 4.824 1.536 4.824 4.608 0 3.024-1.608 4.536-4.824 4.536h-17.208V89.76c2.352-1.536 5.184-2.304 8.496-2.304 3.216 0 6.024.696 8.424 2.088 2.4 1.344 4.272 3.24 5.616 5.688 1.344 2.448 2.016 5.28 2.016 8.496 0 3.408-.768 6.384-2.304 8.928-1.536 2.544-3.744 4.536-6.624 5.976-2.88 1.44-6.288 2.16-10.224 2.16Z"/></svg>

<?xml version="1.0" encoding="UTF-8" standalone="no"?><svg xmlns:android="http://schemas.android.com/apk/res/android" height="192" width="192" xmlns="http://www.w3.org/2000/svg">
  <path d="M146,30H46C37.163,30 30,37.163 30,46V146C30,154.837 37.163,162 46,162H121.373C125.616,162 129.686,160.314 132.686,157.314L157.314,132.686C160.314,129.686 162,125.616 162,121.373V46C162,37.163 154.837,30 146,30Z" fill="#000000" fill-opacity="0.0" stroke="#000000" stroke-width="12"/>
  <path d="M63.484,120C61.66,120 60.34,119.592 59.524,118.776C58.708,117.912 58.3,116.664 58.3,115.032C58.3,113.976 58.564,112.992 59.092,112.08C59.62,111.168 60.34,110.232 61.252,109.272L74.788,95.016C76.804,92.856 78.244,90.936 79.108,89.256C80.02,87.576 80.476,85.896 80.476,84.216C80.476,79.896 77.812,77.736 72.484,77.736C71.092,77.736 69.652,77.928 68.164,78.312C66.724,78.696 65.212,79.368 63.628,80.328C62.332,81.096 61.132,81.264 60.028,80.832C58.972,80.4 58.18,79.656 57.652,78.6C57.172,77.544 57.052,76.44 57.292,75.288C57.58,74.088 58.372,73.104 59.668,72.336C61.78,71.04 64.084,70.08 66.58,69.456C69.076,68.784 71.548,68.448 73.996,68.448C79.66,68.448 83.98,69.72 86.956,72.264C89.98,74.76 91.492,78.336 91.492,82.992C91.492,86.064 90.772,89.016 89.332,91.848C87.94,94.632 85.636,97.656 82.42,100.92L72.628,110.856H89.332C92.452,110.856 94.012,112.368 94.012,115.392C94.012,118.464 92.452,120 89.332,120H63.484ZM116.952,120.792C114.504,120.792 111.984,120.504 109.392,119.928C106.8,119.304 104.424,118.344 102.264,117.048C100.872,116.28 100.008,115.296 99.672,114.096C99.384,112.848 99.48,111.696 99.96,110.64C100.488,109.536 101.304,108.768 102.408,108.336C103.56,107.856 104.832,108 106.224,108.768C109.584,110.592 113.088,111.504 116.736,111.504C119.472,111.504 121.584,110.832 123.072,109.488C124.608,108.144 125.376,106.344 125.376,104.088C125.376,101.784 124.632,99.936 123.144,98.544C121.704,97.152 119.736,96.456 117.24,96.456C115.992,96.456 114.72,96.672 113.424,97.104C112.128,97.488 110.832,98.184 109.536,99.192C109.056,99.576 108.408,99.936 107.592,100.272C106.824,100.608 106.032,100.776 105.216,100.776C102.288,100.776 100.824,99.408 100.824,96.672V74.064C100.824,70.848 102.432,69.24 105.648,69.24H128.76C131.976,69.24 133.584,70.776 133.584,73.848C133.584,76.872 131.976,78.384 128.76,78.384H111.552V89.76C113.904,88.224 116.736,87.456 120.048,87.456C123.264,87.456 126.072,88.152 128.472,89.544C130.872,90.888 132.744,92.784 134.088,95.232C135.432,97.68 136.104,100.512 136.104,103.728C136.104,107.136 135.336,110.112 133.8,112.656C132.264,115.2 130.056,117.192 127.176,118.632C124.296,120.072 120.888,120.792 116.952,120.792Z" fill="#000000"/>
</svg>
